icons/svg/nature.svg

<svg xmlns="http://www.w3.org/2000/svg" version="1.1" baseProfile="full" width="24" height="24" viewBox="0 0 24.00 24.00" xml:space="preserve"><path fill="#000" fill-opacity="1" stroke-linejoin="round" d="M13 16.12c3.47-.41 6.17-3.36 6.17-6.95 0-3.87-3.13-7-7-7s-7 3.13-7 7c0 3.47 2.52 6.34 5.83 6.89V20H5v2h14v-2h-6v-3.88z"/></svg>

﻿<?xml version="1.0" encoding="utf-8"?>
<!DOCTYPE svg PUBLIC "-//W3C//DTD SVG 1.1//EN" "http://www.w3.org/Graphics/SVG/1.1/DTD/svg11.dtd">
<svg xmlns="http://www.w3.org/2000/svg" xmlns:xlink="http://www.w3.org/1999/xlink" version="1.1" baseProfile="full" width="24" height="24" viewBox="0 0 24.00 24.00" enable-background="new 0 0 24.00 24.00" xml:space="preserve">
	<path fill="#000000" fill-opacity="1" stroke-linejoin="round" d="M 13,16.12C 16.47,15.71 19.17,12.76 19.17,9.17C 19.17,5.3 16.04,2.17 12.17,2.17C 8.3,2.17 5.17,5.3 5.17,9.17C 5.17,12.64 7.69,15.51 11,16.06L 11,20L 5,20L 5,22L 19,22L 19,20L 13,20L 13,16.12 Z "/>
</svg>
